src/main/resources/icons/PhpIcons/icons/smartyFileIcon.svg

<svg xmlns="http://www.w3.org/2000/svg" width="16" height="16" viewBox="0 0 16 16"><rect id="frame" width="16" height="16" fill="none"/><g fill="none" fill-rule="evenodd"><path fill="#9AA7B0" d="M6 12h4v1H6z"/><path fill="#9AA7B0" d="M6.5 14h3a1 1 0 0 1-1 1h-1a1 1 0 0 1-1-1z"/><path fill="#F4AF3D" fill-opacity=".7" d="M11 7.52c0 2.4-1.2 2.261-1.2 3.48H6.2C6.2 9.819 5 9.92 5 7.52 5 6.195 6.343 5 8 5s3 1.195 3 2.52z"/><path fill="#F4AF3D" fill-opacity=".7" d="M14.998 10.003l-2.781-2.551L14 4l-4.123.441L8 1 6.123 4.441 2 4l1.783 3.452L1 10l3.618 1.206L4 15l1.704-.109a2.227 2.227 0 0 1-.242-.981v-2.48C4.822 10.713 4 9.635 4 8.246 4 5.905 5.794 4 8 4s4 1.905 4 4.246c0 1.383-.814 2.455-1.462 3.184v2.48c0 .202-.041.592-.242.981L12 15l-.618-3.794 3.616-1.203z"/></g></svg>

<svg xmlns="http://www.w3.org/2000/svg" width="16" height="16" viewBox="0 0 16 16">
  <g fill="none" fill-rule="evenodd">
    <rect width="4" height="1" x="6" y="12" fill="#9AA7B0"/>
    <path fill="#9AA7B0" d="M6.5,14 L9.5,14 L9.5,14 C9.5,14.5522847 9.05228475,15 8.5,15 L7.5,15 C6.94771525,15 6.5,14.5522847 6.5,14 Z"/>
    <path fill="#F4AF3D" fill-opacity=".7" d="M11,7.52 C11,9.92 9.8,9.78125 9.8,11 L6.2,11 C6.2,9.81875 5,9.92 5,7.52 C5,6.1946 6.34327344,5 8,5 C9.65675,5 11,6.19461875 11,7.52 Z"/>
    <path fill="#F4AF3D" fill-opacity=".7" d="M14.998,10.003 L12.217,7.452 L14,4 L9.877,4.441 L8,1 L6.123,4.441 L2,4 L3.783,7.452 L1,10 L4.618,11.206 L4,15 L5.704,14.891 C5.503,14.502 5.462,14.112 5.462,13.91 L5.462,12.109 L5.462,11.692 L5.462,11.43 C4.822,10.713 4,9.635 4,8.246 C4,5.905 5.794,4 8,4 C10.206,4 12,5.905 12,8.246 C12,9.629 11.186,10.701 10.538,11.43 L10.538,11.692 L10.538,12.109 L10.538,13.91 C10.538,14.112 10.497,14.502 10.296,14.891 L12,15 L11.382,11.206 L14.998,10.003 Z"/>
  </g>
</svg>
